!!!OTL: WILT DU MEI SEI
!!!ARE: Europa, Mitteleuropa, Deutschland, Franken
!!!SCT: E0539
!!!YEM: Copyright 1995, estate of Helmut Schaffrath.
**kern
*ICvox
*Ivox
*M3/4
*k[b-]
*F:
{8ff
8dd
=1
8dd
8cc
4cc
8b-
8g
=2
8g
8f
4f}
{8a
8g
=3
4f
4b-
4dd
=4
4cc
4r}
{8ff
8dd
=5
8dd
8cc
4cc
8b-
8g
=6
8g
8f
4f}
{8cc
8a
=7
8g
8a
8b-
8g
8f
8e
=8
4f
4r}
==
!!!AGN: Liebes - Lied
!!!ONB: ESAC (Essen Associative Code) Database: ERK1
!!!AMT: simple triple
!!!AIN: vox
!!!EED: Helmut Schaffrath
!!!EEV: 1.0
*-
